icons/Brisk Light/mimetypes/32/application-vnd.ms-excel.template.macroenabled.12.svg

<?xml version="1.0" encoding="UTF-8" standalone="no"?>
<svg
   xmlns:dc="http://purl.org/dc/elements/1.1/"
   xmlns:cc="http://creativecommons.org/ns#"
   xmlns:rdf="http://www.w3.org/1999/02/22-rdf-syntax-ns#"
   xmlns:svg="http://www.w3.org/2000/svg"
   xmlns="http://www.w3.org/2000/svg"
   xmlns:xlink="http://www.w3.org/1999/xlink"
   xmlns:sodipodi="http://sodipodi.sourceforge.net/DTD/sodipodi-0.dtd"
   xmlns:inkscape="http://www.inkscape.org/namespaces/inkscape"
   width="32px"
   height="32px"
   viewBox="0 0 32 32"
   version="1.1"
   id="svg18"
   sodipodi:docname="application-vnd.ms-excel.template.macroenabled.12.svg"
   inkscape:version="0.92.4 5da689c313, 2019-01-14">
  <metadata
     id="metadata22">
    <rdf:RDF>
      <cc:Work
         rdf:about="">
        <dc:format>image/svg+xml</dc:format>
        <dc:type
           rdf:resource="http://purl.org/dc/dcmitype/StillImage" />
        <dc:title>text-x-javascript</dc:title>
      </cc:Work>
    </rdf:RDF>
  </metadata>
  <sodipodi:namedview
     pagecolor="#1e2023"
     bordercolor="#666666"
     borderopacity="1"
     objecttolerance="10"
     gridtolerance="10"
     guidetolerance="10"
     inkscape:pageopacity="0"
     inkscape:pageshadow="2"
     inkscape:window-width="3840"
     inkscape:window-height="2012"
     id="namedview20"
     showgrid="true"
     inkscape:zoom="39.001358"
     inkscape:cx="16"
     inkscape:cy="16"
     inkscape:window-x="0"
     inkscape:window-y="0"
     inkscape:window-maximized="1"
     inkscape:current-layer="svg18">
    <inkscape:grid
       type="xygrid"
       id="grid820"
       color="#6e6e6e"
       opacity="0.1254902"
       empcolor="#6e6e6e"
       empopacity="0.25098039" />
  </sodipodi:namedview>
  <!-- Generator: Sketch 40.3 (33839) - http://www.bohemiancoding.com/sketch -->
  <title
     id="title2">text-x-javascript</title>
  <desc
     id="desc4">Created with Sketch.</desc>
  <defs
     id="defs6" />
  <g
     id="g827">
    <image
       width="27"
       height="30"
       preserveAspectRatio="none"
       xlink:href="data:image/png;base64,iVBORw0KGgoAAAANSUhEUgAAABsAAAAeCAYAAADdGWXmAAAABHNCSVQICAgIfAhkiAAAAWhJREFU SIntlmFPgzAQhp8Csm666P//k5rolgmD+qHvSYdDC8FvvEmzhPTuaa+X3euIctwqkC83+g1T8aU2 OeABqGbCLLZWfPlbfAkU2ngA9vreZwKdDrgHjoBPYP0UzAPPwKM2Nfc2/wF7EbBS7HV84CoJ8MAO uOgAueqUuCOWs1bOAJxSaHqzI7GcF+Cs4FxZ2e2WOwE7rWA3SzXuyhwFoAU+GBrmSHyWXusMdGPY Etm7NMB7AnwivmOr1a8BuwcsGEp60LdmTiPkAIOAJ2LpekFLwK0JS4EdsXTWZA7mtfgcoHXnzV/X f8AmtcE22AbbYMuVjhibQ0Wy5li6NI/FW84fMHNZnjiDSvJMz1gF0RZ45WsMOPaJnmHwNSy/WU20 BjVxtvUGM9vVEOeP1/dvo7IAVipHq7xXZAtsur5pszmjJaAUGIBP4FX5gz2g2e+awUsucVomG5pW sdZgdhIYOmgtpTY8fAHNF2XFmg89HgAAAABJRU5ErkJggg== "
       id="image1000-3"
       x="2.5000005"
       y="2.0000005" />
    <path
       d="M 26.000001,29.851454 H 6.0000002 c -1,0 -1,-1 -1,-1 v -24 c 0,0 0,-1 1,-1 H 20 l 7.000001,7 v 18 c 0,1 -1,1 -1,1 z"
       id="path14361-6"
       inkscape:connector-curvature="0"
       style="fill:#26834e;fill-opacity:1;fill-rule:evenodd;stroke:none;stroke-width:1" />
    <path
       id="path17"
       d="m 6,3.8515625 c -0.996906,0 -0.99999,0.991897 -1,0.9980469 h 1.9980469 v 2 H 5 v 1 h 1.9980469 v 2 H 5 v 0.9999996 h 1.9980469 v 2 H 5 v 1 h 1.9980469 v 2 H 5 v 1 h 1.9980469 v 2 H 5 v 1 h 1.9980469 v 2 H 5 v 1 h 1.9980469 v 2 H 5 v 1 h 1.9980469 v 2 H 5 v 1 h 1.9980469 v 1 h 1 v -1 h 2 v 1 h 1.0000001 v -1 h 2 v 1 h 1 v -1 h 2 v 1 h 1 v -1 h 2 v 1 h 1 v -1 h 2 v 1 h 1 v -1 h 2 v 1 h 1 v -1 h 1 v -1 h -1 v -2 h 1 v -1 h -1 v -2 h 1 v -1 h -1 v -2 h 1 v -1 h -1 v -2 h 1 v -1 h -1 v -2 h 1 v -1 h -1 v -2 h -1 v 2 h -2 v -2 h -1 v 2 h -2 v -2 h 0.998047 c -0.969505,0 -0.997146,-0.9416026 -0.998047,-0.9999996 -2.8e-5,-0.00184 -0.002,-0.019531 -0.002,-0.019531 V 3.8515625 Z m 1.9980469,0.9980469 h 2 v 2 h -2 z m 3.0000001,0 h 2 v 2 h -2 z m 3,0 h 2 v 2 h -2 z m 3,0 h 2 v 2 h -2 z m -9.0000001,3 h 2 v 2 h -2 z m 3.0000001,0 h 2 v 2 h -2 z m 3,0 h 2 v 2 h -2 z m 3,0 h 2 v 2 h -2 z M 7.9980469,10.849609 h 2 v 2 h -2 z m 3.0000001,0 h 2 v 2 h -2 z m 3,0 h 2 v 2 h -2 z m 3,0 h 2 v 2 h -2 z m -9.0000001,3 h 2 v 1.464844 h 1.0000001 v -1.464844 h 2 v 1.464844 h 1 v -1.464844 h 2 v 2 h -0.05274 v 1 h 0.05274 v 2 h -0.05274 v 1 h 0.05274 v 2 h -0.05274 v 0.464844 H 8.9453125 V 21.849609 H 7.9980469 v -2 h 0.9472656 v -1 H 7.9980469 v -2 h 0.9472656 v -1 H 7.9980469 Z m 9.0000001,0 h 2 v 2 h -2 z m 3,0 h 2 v 2 h -2 z m 3,0 h 2 v 2 h -2 z m -6,3 h 2 v 2 h -2 z m 3,0 h 2 v 2 h -2 z m 3,0 h 2 v 2 h -2 z m -6,3 h 2 v 2 h -2 z m 3,0 h 2 v 2 h -2 z m 3,0 h 2 v 2 h -2 z m -15.0000001,3 h 2 v 2 h -2 v -1 z m 3.0000001,0 h 2 v 2 h -2 v -1 z m 3,0 h 2 v 2 h -2 v -1 z m 3,0 h 2 v 2 h -2 v -1 z m 3,0 h 2 v 2 h -2 v -1 z m 3,0 h 2 v 2 h -2 v -1 z m -15.0000001,3 h 2 v 2 h -2 v -1 z m 3.0000001,0 h 2 v 2 h -2 v -1 z m 3,0 h 2 v 2 h -2 v -1 z m 3,0 h 2 v 2 h -2 v -1 z m 3,0 h 2 v 2 h -2 v -1 z m 3,0 h 2 v 2 h -2 v -1 z"
       style="color:#000000;opacity:0.15;color-interpolation:sRGB;color-interpolation-filters:linearRGB;fill:#ffffff;color-rendering:auto;image-rendering:auto;shape-rendering:auto;text-rendering:auto"
       inkscape:connector-curvature="0" />
    <path
       inkscape:connector-curvature="0"
       id="Combined-Shape"
       d="m 16.500298,11.314454 -8.0000003,1.351562 v 11.296875 l 8.0000003,1.351563 z m 1,2 v 1 h 2 v 2 h -2 v 1 h 2 v 2 h -2 v 1 h 2 v 2 h -2 v 1 h 5.5 c 0.276142,0 0.5,-0.223858 0.5,-0.5 v -9 c 0,-0.276143 -0.223858,-0.5 -0.5,-0.5 z m 3,1 h 2 v 2 h -2 z m -9.902344,1.794921 h 1.015625 l 0.824219,1.404297 0.822266,-1.404297 h 1.019531 l -1.255859,2.134766 1.30664,2.224609 h -1.011719 l -0.880859,-1.488281 -0.873047,1.488281 h -1.017578 l 1.308594,-2.224609 z m 9.902344,1.205079 h 2 v 2 h -2 z m 0,3 h 2 v 2 h -2 z"
       style="fill:#e1e1e1;fill-opacity:1;fill-rule:evenodd;stroke:none;stroke-width:1" />
    <path
       d="m 21,10.851454 c -1,0 -1,-1.018667 -1,-1.018667 v -6 l 7.000001,7.018667 z"
       id="path14363-7-3"
       inkscape:connector-curvature="0"
       style="opacity:0.5;fill:#fffffc;fill-opacity:1;fill-rule:evenodd;stroke:none;stroke-width:1" />
  </g>
</svg>

<?xml version="1.0" encoding="UTF-8" standalone="no"?>
<svg
   xmlns:dc="http://purl.org/dc/elements/1.1/"
   xmlns:cc="http://creativecommons.org/ns#"
   xmlns:rdf="http://www.w3.org/1999/02/22-rdf-syntax-ns#"
   xmlns:svg="http://www.w3.org/2000/svg"
   xmlns="http://www.w3.org/2000/svg"
   xmlns:xlink="http://www.w3.org/1999/xlink"
   xmlns:sodipodi="http://sodipodi.sourceforge.net/DTD/sodipodi-0.dtd"
   xmlns:inkscape="http://www.inkscape.org/namespaces/inkscape"
   width="32px"
   height="32px"
   viewBox="0 0 32 32"
   version="1.1"
   id="svg18"
   sodipodi:docname="application-vnd.ms-excel.template.macroenabled.12.svg"
   inkscape:version="0.92.4 5da689c313, 2019-01-14">
  <metadata
     id="metadata22">
    <rdf:RDF>
      <cc:Work
         rdf:about="">
        <dc:format>image/svg+xml</dc:format>
        <dc:type
           rdf:resource="http://purl.org/dc/dcmitype/StillImage" />
        <dc:title>text-x-javascript</dc:title>
      </cc:Work>
    </rdf:RDF>
  </metadata>
  <sodipodi:namedview
     pagecolor="#1e2023"
     bordercolor="#666666"
     borderopacity="1"
     objecttolerance="10"
     gridtolerance="10"
     guidetolerance="10"
     inkscape:pageopacity="0"
     inkscape:pageshadow="2"
     inkscape:window-width="3840"
     inkscape:window-height="2012"
     id="namedview20"
     showgrid="true"
     inkscape:zoom="39.00136"
     inkscape:cx="2.3313628"
     inkscape:cy="17.3154"
     inkscape:window-x="0"
     inkscape:window-y="0"
     inkscape:window-maximized="1"
     inkscape:current-layer="svg18">
    <inkscape:grid
       type="xygrid"
       id="grid820"
       color="#6e6e6e"
       opacity="0.1254902"
       empcolor="#6e6e6e"
       empopacity="0.25098039" />
  </sodipodi:namedview>
  <!-- Generator: Sketch 40.3 (33839) - http://www.bohemiancoding.com/sketch -->
  <title
     id="title2">text-x-javascript</title>
  <desc
     id="desc4">Created with Sketch.</desc>
  <defs
     id="defs6" />
  <image
     y="2.0000005"
     x="2.5000005"
     id="image1000-3"
     xlink:href="data:image/png;base64,iVBORw0KGgoAAAANSUhEUgAAABsAAAAeCAYAAADdGWXmAAAABHNCSVQICAgIfAhkiAAAAWhJREFU SIntlmFPgzAQhp8Csm666P//k5rolgmD+qHvSYdDC8FvvEmzhPTuaa+X3euIctwqkC83+g1T8aU2 OeABqGbCLLZWfPlbfAkU2ngA9vreZwKdDrgHjoBPYP0UzAPPwKM2Nfc2/wF7EbBS7HV84CoJ8MAO uOgAueqUuCOWs1bOAJxSaHqzI7GcF+Cs4FxZ2e2WOwE7rWA3SzXuyhwFoAU+GBrmSHyWXusMdGPY Etm7NMB7AnwivmOr1a8BuwcsGEp60LdmTiPkAIOAJ2LpekFLwK0JS4EdsXTWZA7mtfgcoHXnzV/X f8AmtcE22AbbYMuVjhibQ0Wy5li6NI/FW84fMHNZnjiDSvJMz1gF0RZ45WsMOPaJnmHwNSy/WU20 BjVxtvUGM9vVEOeP1/dvo7IAVipHq7xXZAtsur5pszmjJaAUGIBP4FX5gz2g2e+awUsucVomG5pW sdZgdhIYOmgtpTY8fAHNF2XFmg89HgAAAABJRU5ErkJggg== "
     preserveAspectRatio="none"
     height="30"
     width="27" />
  <path
     style="fill:#26834e;fill-opacity:1;fill-rule:evenodd;stroke:none;stroke-width:1"
     inkscape:connector-curvature="0"
     id="path14361-6"
     d="M 26.000001,29.851454 H 6.0000002 c -1,0 -1,-1 -1,-1 v -24 c 0,0 0,-1 1,-1 H 20 l 7.000001,7 v 18 c 0,1 -1,1 -1,1 z" />
  <path
     style="color:#000000;opacity:0.15;color-interpolation:sRGB;color-interpolation-filters:linearRGB;fill:#ffffff;color-rendering:auto;image-rendering:auto;shape-rendering:auto;text-rendering:auto"
     d="M 6 3.8515625 C 5.003094 3.8515625 5.00001 4.8434595 5 4.8496094 L 6.9980469 4.8496094 L 6.9980469 6.8496094 L 5 6.8496094 L 5 7.8496094 L 6.9980469 7.8496094 L 6.9980469 9.8496094 L 5 9.8496094 L 5 10.849609 L 6.9980469 10.849609 L 6.9980469 12.849609 L 5 12.849609 L 5 13.849609 L 6.9980469 13.849609 L 6.9980469 15.849609 L 5 15.849609 L 5 16.849609 L 6.9980469 16.849609 L 6.9980469 18.849609 L 5 18.849609 L 5 19.849609 L 6.9980469 19.849609 L 6.9980469 21.849609 L 5 21.849609 L 5 22.849609 L 6.9980469 22.849609 L 6.9980469 24.849609 L 5 24.849609 L 5 25.849609 L 6.9980469 25.849609 L 6.9980469 27.849609 L 5 27.849609 L 5 28.849609 L 6.9980469 28.849609 L 6.9980469 29.849609 L 7.9980469 29.849609 L 7.9980469 28.849609 L 9.9980469 28.849609 L 9.9980469 29.849609 L 10.998047 29.849609 L 10.998047 28.849609 L 12.998047 28.849609 L 12.998047 29.849609 L 13.998047 29.849609 L 13.998047 28.849609 L 15.998047 28.849609 L 15.998047 29.849609 L 16.998047 29.849609 L 16.998047 28.849609 L 18.998047 28.849609 L 18.998047 29.849609 L 19.998047 29.849609 L 19.998047 28.849609 L 21.998047 28.849609 L 21.998047 29.849609 L 22.998047 29.849609 L 22.998047 28.849609 L 24.998047 28.849609 L 24.998047 29.849609 L 25.998047 29.849609 L 25.998047 28.849609 L 26.998047 28.849609 L 26.998047 27.849609 L 25.998047 27.849609 L 25.998047 25.849609 L 26.998047 25.849609 L 26.998047 24.849609 L 25.998047 24.849609 L 25.998047 22.849609 L 26.998047 22.849609 L 26.998047 21.849609 L 25.998047 21.849609 L 25.998047 19.849609 L 26.998047 19.849609 L 26.998047 18.849609 L 25.998047 18.849609 L 25.998047 16.849609 L 26.998047 16.849609 L 26.998047 15.849609 L 25.998047 15.849609 L 25.998047 13.849609 L 26.998047 13.849609 L 26.998047 12.849609 L 25.998047 12.849609 L 25.998047 10.849609 L 24.998047 10.849609 L 24.998047 12.849609 L 22.998047 12.849609 L 22.998047 10.849609 L 21.998047 10.849609 L 21.998047 12.849609 L 19.998047 12.849609 L 19.998047 10.849609 L 20.996094 10.849609 C 20.026589 10.849609 19.998948 9.9080064 19.998047 9.8496094 C 19.998019 9.8477725 19.996094 9.8300781 19.996094 9.8300781 L 19.996094 3.8515625 L 6 3.8515625 z M 7.9980469 4.8496094 L 9.9980469 4.8496094 L 9.9980469 6.8496094 L 7.9980469 6.8496094 L 7.9980469 4.8496094 z M 10.998047 4.8496094 L 12.998047 4.8496094 L 12.998047 6.8496094 L 10.998047 6.8496094 L 10.998047 4.8496094 z M 13.998047 4.8496094 L 15.998047 4.8496094 L 15.998047 6.8496094 L 13.998047 6.8496094 L 13.998047 4.8496094 z M 16.998047 4.8496094 L 18.998047 4.8496094 L 18.998047 6.8496094 L 16.998047 6.8496094 L 16.998047 4.8496094 z M 7.9980469 7.8496094 L 9.9980469 7.8496094 L 9.9980469 9.8496094 L 7.9980469 9.8496094 L 7.9980469 7.8496094 z M 10.998047 7.8496094 L 12.998047 7.8496094 L 12.998047 9.8496094 L 10.998047 9.8496094 L 10.998047 7.8496094 z M 13.998047 7.8496094 L 15.998047 7.8496094 L 15.998047 9.8496094 L 13.998047 9.8496094 L 13.998047 7.8496094 z M 16.998047 7.8496094 L 18.998047 7.8496094 L 18.998047 9.8496094 L 16.998047 9.8496094 L 16.998047 7.8496094 z M 7.9980469 10.849609 L 9.9980469 10.849609 L 9.9980469 12.849609 L 7.9980469 12.849609 L 7.9980469 10.849609 z M 10.998047 10.849609 L 12.998047 10.849609 L 12.998047 12.849609 L 10.998047 12.849609 L 10.998047 10.849609 z M 13.998047 10.849609 L 15.998047 10.849609 L 15.998047 12.849609 L 13.998047 12.849609 L 13.998047 10.849609 z M 16.998047 10.849609 L 18.998047 10.849609 L 18.998047 12.849609 L 16.998047 12.849609 L 16.998047 10.849609 z M 7.9980469 13.849609 L 9.9980469 13.849609 L 9.9980469 15.314453 L 10.998047 15.314453 L 10.998047 13.849609 L 12.998047 13.849609 L 12.998047 15.314453 L 13.998047 15.314453 L 13.998047 13.849609 L 15.998047 13.849609 L 15.998047 15.849609 L 15.945312 15.849609 L 15.945312 16.849609 L 15.998047 16.849609 L 15.998047 18.849609 L 15.945312 18.849609 L 15.945312 19.849609 L 15.998047 19.849609 L 15.998047 21.849609 L 15.945312 21.849609 L 15.945312 22.314453 L 8.9453125 22.314453 L 8.9453125 21.849609 L 7.9980469 21.849609 L 7.9980469 19.849609 L 8.9453125 19.849609 L 8.9453125 18.849609 L 7.9980469 18.849609 L 7.9980469 16.849609 L 8.9453125 16.849609 L 8.9453125 15.849609 L 7.9980469 15.849609 L 7.9980469 13.849609 z M 16.998047 13.849609 L 18.998047 13.849609 L 18.998047 15.849609 L 16.998047 15.849609 L 16.998047 13.849609 z M 19.998047 13.849609 L 21.998047 13.849609 L 21.998047 15.849609 L 19.998047 15.849609 L 19.998047 13.849609 z M 22.998047 13.849609 L 24.998047 13.849609 L 24.998047 15.849609 L 22.998047 15.849609 L 22.998047 13.849609 z M 16.998047 16.849609 L 18.998047 16.849609 L 18.998047 18.849609 L 16.998047 18.849609 L 16.998047 16.849609 z M 19.998047 16.849609 L 21.998047 16.849609 L 21.998047 18.849609 L 19.998047 18.849609 L 19.998047 16.849609 z M 22.998047 16.849609 L 24.998047 16.849609 L 24.998047 18.849609 L 22.998047 18.849609 L 22.998047 16.849609 z M 16.998047 19.849609 L 18.998047 19.849609 L 18.998047 21.849609 L 16.998047 21.849609 L 16.998047 19.849609 z M 19.998047 19.849609 L 21.998047 19.849609 L 21.998047 21.849609 L 19.998047 21.849609 L 19.998047 19.849609 z M 22.998047 19.849609 L 24.998047 19.849609 L 24.998047 21.849609 L 22.998047 21.849609 L 22.998047 19.849609 z M 7.9980469 22.849609 L 9.9980469 22.849609 L 9.9980469 24.849609 L 7.9980469 24.849609 L 7.9980469 23.849609 L 7.9980469 22.849609 z M 10.998047 22.849609 L 12.998047 22.849609 L 12.998047 24.849609 L 10.998047 24.849609 L 10.998047 23.849609 L 10.998047 22.849609 z M 13.998047 22.849609 L 15.998047 22.849609 L 15.998047 24.849609 L 13.998047 24.849609 L 13.998047 23.849609 L 13.998047 22.849609 z M 16.998047 22.849609 L 18.998047 22.849609 L 18.998047 24.849609 L 16.998047 24.849609 L 16.998047 23.849609 L 16.998047 22.849609 z M 19.998047 22.849609 L 21.998047 22.849609 L 21.998047 24.849609 L 19.998047 24.849609 L 19.998047 23.849609 L 19.998047 22.849609 z M 22.998047 22.849609 L 24.998047 22.849609 L 24.998047 24.849609 L 22.998047 24.849609 L 22.998047 23.849609 L 22.998047 22.849609 z M 7.9980469 25.849609 L 9.9980469 25.849609 L 9.9980469 27.849609 L 7.9980469 27.849609 L 7.9980469 26.849609 L 7.9980469 25.849609 z M 10.998047 25.849609 L 12.998047 25.849609 L 12.998047 27.849609 L 10.998047 27.849609 L 10.998047 26.849609 L 10.998047 25.849609 z M 13.998047 25.849609 L 15.998047 25.849609 L 15.998047 27.849609 L 13.998047 27.849609 L 13.998047 26.849609 L 13.998047 25.849609 z M 16.998047 25.849609 L 18.998047 25.849609 L 18.998047 27.849609 L 16.998047 27.849609 L 16.998047 26.849609 L 16.998047 25.849609 z M 19.998047 25.849609 L 21.998047 25.849609 L 21.998047 27.849609 L 19.998047 27.849609 L 19.998047 26.849609 L 19.998047 25.849609 z M 22.998047 25.849609 L 24.998047 25.849609 L 24.998047 27.849609 L 22.998047 27.849609 L 22.998047 26.849609 L 22.998047 25.849609 z "
     id="path17" />
  <path
     style="fill:#e1e1e1;fill-opacity:1;fill-rule:evenodd;stroke:none;stroke-width:1"
     d="m 16.500298,11.314454 -8.0000003,1.351562 v 11.296875 l 8.0000003,1.351563 z m 1,2 v 1 h 2 v 2 h -2 v 1 h 2 v 2 h -2 v 1 h 2 v 2 h -2 v 1 h 5.5 c 0.276142,0 0.5,-0.223858 0.5,-0.5 v -9 c 0,-0.276143 -0.223858,-0.5 -0.5,-0.5 z m 3,1 h 2 v 2 h -2 z m -9.902344,1.794921 h 1.015625 l 0.824219,1.404297 0.822266,-1.404297 h 1.019531 l -1.255859,2.134766 1.30664,2.224609 h -1.011719 l -0.880859,-1.488281 -0.873047,1.488281 h -1.017578 l 1.308594,-2.224609 z m 9.902344,1.205079 h 2 v 2 h -2 z m 0,3 h 2 v 2 h -2 z"
     id="Combined-Shape"
     inkscape:connector-curvature="0" />
  <path
     style="opacity:0.5;fill:#fffffc;fill-opacity:1;fill-rule:evenodd;stroke:none;stroke-width:1"
     inkscape:connector-curvature="0"
     id="path14363-7-3"
     d="m 21,10.851454 c -1,0 -1,-1.018667 -1,-1.018667 v -6 l 7.000001,7.018667 z" />
</svg>
